material/.icons/material/layers-outline.svg

<svg xmlns="http://www.w3.org/2000/svg" viewBox="0 0 24 24"><path d="M12 18.54l7.37-5.74L21 14.07l-9 7-9-7 1.62-1.26L12 18.54M12 16L3 9l9-7 9 7-9 7m0-11.47L6.26 9 12 13.47 17.74 9 12 4.53z"/></svg>

<?xml version="1.0" encoding="UTF-8"?><!DOCTYPE svg PUBLIC "-//W3C//DTD SVG 1.1//EN" "http://www.w3.org/Graphics/SVG/1.1/DTD/svg11.dtd"><svg xmlns="http://www.w3.org/2000/svg" xmlns:xlink="http://www.w3.org/1999/xlink" version="1.1" id="mdi-layers-outline" width="24" height="24" viewBox="0 0 24 24"><path d="M12,18.54L19.37,12.8L21,14.07L12,21.07L3,14.07L4.62,12.81L12,18.54M12,16L3,9L12,2L21,9L12,16M12,4.53L6.26,9L12,13.47L17.74,9L12,4.53Z" /></svg>
